public/img/backs-mission.svg

<svg width="40" height="72" viewBox="0 0 40 72" fill="none" xmlns="http://www.w3.org/2000/svg">
<path d="M21.0728 63.5442C17.5479 63.5442 14.4317 63.014 11.7241 61.9535C9.0166 60.893 6.69221 59.4698 4.75096 57.6837C2.80971 55.8977 1.22605 53.8884 0 51.6558L5.21073 47.0512C6.18135 49.0605 7.40741 50.8465 8.88889 52.4093C10.3704 53.9721 12.1584 55.2 14.2529 56.093C16.3474 56.986 18.7484 57.4326 21.4559 57.4326C25.2363 57.4326 28.2248 56.6791 30.4215 55.1721C32.6692 53.6651 33.7931 51.4605 33.7931 48.5581C33.7931 46.8279 33.2567 45.293 32.1839 43.9535C31.1622 42.5581 29.2209 41.4977 26.3602 40.7721L14.8659 37.9256C11.8008 37.1442 9.34866 36.1116 7.50958 34.8279C5.6705 33.4884 4.34227 31.9256 3.5249 30.1395C2.70754 28.2977 2.29885 26.3163 2.29885 24.1953C2.29885 21.293 3.01405 18.6419 4.44444 16.2419C5.92593 13.8419 8.02043 11.9163 10.728 10.4651C13.4866 9.01395 16.7816 8.28837 20.613 8.28837C24.9042 8.28837 28.6079 9.23721 31.7241 11.1349C34.8914 13.0326 37.4968 15.8791 39.5402 19.6744L34.5594 23.8605C32.7714 20.4 30.7024 17.9442 28.3525 16.493C26.0536 15.0419 23.2695 14.3163 20 14.3163C17.3436 14.3163 15.1724 14.7349 13.4866 15.5721C11.8008 16.3535 10.5492 17.414 9.7318 18.7535C8.91443 20.093 8.50575 21.6 8.50575 23.2744C8.50575 24.5581 8.73563 25.7302 9.1954 26.7907C9.65517 27.8512 10.4725 28.8 11.6475 29.6372C12.8736 30.4186 14.5594 31.0884 16.705 31.6465L27.3563 34.2419C32.0562 35.3581 35.3257 37.0884 37.1648 39.4326C39.0549 41.7209 40 44.5674 40 47.9721C40 51.0419 39.2082 53.7488 37.6245 56.093C36.092 58.4372 33.8953 60.2791 31.0345 61.6186C28.2248 62.9023 24.9042 63.5442 21.0728 63.5442ZM18.1609 72V0H23.4483V72H18.1609Z" fill="#573CDA"/>
</svg>

<svg width="40" height="72" fill="none" xmlns="http://www.w3.org/2000/svg"><path d="M21.073 63.544c-3.525 0-6.641-.53-9.349-1.59-2.707-1.061-5.032-2.484-6.973-4.27A23.598 23.598 0 010 51.656l5.21-4.605a21.018 21.018 0 003.68 5.359c1.481 1.563 3.27 2.791 5.364 3.684 2.094.893 4.495 1.34 7.203 1.34 3.78 0 6.769-.754 8.966-2.26 2.247-1.508 3.371-3.712 3.371-6.615 0-1.73-.536-3.265-1.61-4.605-1.02-1.395-2.962-2.455-5.823-3.18l-11.494-2.847c-3.065-.782-5.517-1.814-7.356-3.098-1.84-1.34-3.168-2.902-3.985-4.689-.817-1.841-1.226-3.823-1.226-5.944 0-2.902.715-5.553 2.145-7.953 1.482-2.4 3.576-4.326 6.284-5.777 2.759-1.451 6.054-2.177 9.885-2.177 4.291 0 7.995.95 11.111 2.847 3.167 1.898 5.773 4.744 7.816 8.54l-4.98 4.185c-1.789-3.46-3.858-5.916-6.208-7.367-2.298-1.451-5.082-2.177-8.352-2.177-2.656 0-4.828.419-6.513 1.256-1.686.782-2.938 1.842-3.755 3.181-.818 1.34-1.226 2.847-1.226 4.521 0 1.284.23 2.456.69 3.517.46 1.06 1.277 2.009 2.452 2.846 1.226.782 2.911 1.451 5.057 2.01l10.651 2.595c4.7 1.116 7.97 2.846 9.809 5.19 1.89 2.289 2.835 5.135 2.835 8.54 0 3.07-.792 5.777-2.376 8.121-1.532 2.344-3.729 4.186-6.59 5.526-2.81 1.283-6.13 1.925-9.961 1.925zM18.16 72V0h5.287v72H18.16z" fill="#573CDA"/></svg>
